src/assets/duotone/ShieldTick.svg

<svg width="24" height="24" viewBox="0 0 24 24"  xmlns="http://www.w3.org/2000/svg">
<path opacity="0.4" d="M10.9598 2.06008L5.4598 4.12008C4.4098 4.52008 3.5498 5.76008 3.5498 6.89008V14.9901C3.5498 15.8001 4.0798 16.8701 4.7298 17.3501L10.2298 21.4601C11.1998 22.1901 12.7898 22.1901 13.7598 21.4601L19.2598 17.3501C19.9098 16.8601 20.4398 15.8001 20.4398 14.9901V6.89008C20.4398 5.77008 19.5798 4.52008 18.5298 4.13008L13.0298 2.07008C12.4698 1.85008 11.5298 1.85008 10.9598 2.06008Z" />
<path d="M10.6602 14.2301C10.4702 14.2301 10.2802 14.1601 10.1302 14.0101L8.52023 12.4001C8.23023 12.1101 8.23023 11.6301 8.52023 11.3401C8.81023 11.0501 9.29023 11.0501 9.58023 11.3401L10.6602 12.4201L14.4302 8.65012C14.7202 8.36012 15.2002 8.36012 15.4902 8.65012C15.7802 8.94012 15.7802 9.42012 15.4902 9.71012L11.1902 14.0101C11.0402 14.1601 10.8502 14.2301 10.6602 14.2301Z" />
</svg>

<?xml version="1.0" encoding="UTF-8"?>
<svg width="24" height="24" viewBox="0 0 24 24" xmlns="http://www.w3.org/2000/svg">
 <path d="m10.96 2.0601-5.5 2.06c-1.05 0.4-1.91 1.64-1.91 2.77v8.1c0 0.81 0.53 1.88 1.18 2.36l5.5 4.11c0.97 0.73 2.56 0.73 3.53 0l5.5-4.11c0.65-0.49 1.18-1.55 1.18-2.36v-8.1c0-1.12-0.86-2.37-1.91-2.76l-5.5-2.06c-0.56-0.22-1.5-0.22-2.07-0.01z" opacity=".4"/>
 <path d="m10.66 14.23c-0.19 0-0.38-0.07-0.53-0.22l-1.61-1.61c-0.29-0.29-0.29-0.77 0-1.06s0.77-0.29 1.06 0l1.08 1.08 3.77-3.77c0.29-0.29 0.77-0.29 1.06 0s0.29 0.77 0 1.06l-4.3 4.3c-0.15 0.15-0.34 0.22-0.53 0.22z"/>
</svg>
